usr/share/icons/big-icons/symbolic/actions/mode4.svg

<svg xmlns="http://www.w3.org/2000/svg" viewBox="0 0 16 16">
<defs id="defs3051">
<style id="current-color-scheme" type="text/css">
.ColorScheme-Text{color:#fcfcfc}.ColorScheme-Highlight{color:#3daee9}
</style>
</defs>
<path d="M2 2v1h5V2zm7 0v1h5V2zM2 5v1h5V5zm7 0v1h5V5zm3 3v1h2V8zm-5 3-2 1.5L7 14v-1h2v-1H7z" class="ColorScheme-Text" style="fill:currentColor;fill-opacity:1;stroke:none"/>
<path d="M7 7 5 8.5 7 10V9h2c.554 0 1 .446 1 1v1c0 1.108.892 2 2 2h2v-1h-2c-.554 0-1-.446-1-1v-1c0-1.108-.892-2-2-2H7Z" class="ColorScheme-Highlight" style="fill:currentColor;fill-opacity:1;stroke:none"/>
</svg>

<svg xmlns="http://www.w3.org/2000/svg" viewBox="0 0 16 16">
  <defs id="defs3051">
    <style type="text/css" id="current-color-scheme">
      .ColorScheme-Text {
        color:#eff0f1;
      }
      .ColorScheme-Highlight {
        color:#3daee9;
      }
      </style>
  </defs>
  <path 
        style="fill:currentColor;fill-opacity:1;stroke:none"
        d="M 2 2 L 2 3 L 7 3 L 7 2 L 2 2 z M 9 2 L 9 3 L 14 3 L 14 2 L 9 2 z M 2 5 L 2 6 L 7 6 L 7 5 L 2 5 z M 9 5 L 9 6 L 14 6 L 14 5 L 9 5 z M 12 8 L 12 9 L 14 9 L 14 8 L 12 8 z M 7 11 L 5 12.5 L 7 14 L 7 13 L 9 13 L 9 12 L 7 12 L 7 11 z "
        class="ColorScheme-Text"
        />
  <path
        style="fill:currentColor;fill-opacity:1;stroke:none"
        d="M 7,7 5,8.5 7,10 7,9 9,9 c 0.554,0 1,0.446 1,1 l 0,1 c 0,1.108 0.892,2 2,2 l 2,0 0,-1 -2,0 c -0.554,0 -1,-0.446 -1,-1 l 0,-1 C 11,8.892 10.108,8 9,8 L 7,8 Z"
        class="ColorScheme-Highlight"
      />
</svg>
